X:1
T:Title
%%score { ( 1 4 ) | ( 2 3 ) }
L:1/8
Q:1/4=114
M:6/4
K:Eb
V:1 treble nm="Grand Piano"
V:4 treble 
V:2 bass 
V:3 bass 
V:1
 [B,EG]4 [A,DF]2 [G,E]4 [B,DF]2 | [B,EG]4 [B,DF]2 G B3 z2 | B4 c2 B4 G2 | %3
w: Ira~Sankey * * *|||
 .[=A,EG]4 [A,CE]2 [B,DF]6 | [B,EG]4 [A,DF]2 [G,E]4 [B,DF]2 | [B,EG]4 [B,DF]2 G B3 z2 | %6
w: |||
 B4 c2 B2 E2 [CEA]2 | [B,EG]4 [A,DF]2 [G,E]6 | [B,DF]4 [B,EG]2 [B,FA]4 [DAc]2 | %9
w: |||
 .[EGB]4 [B,FA]2 [B,FA] [B,EG]3 z2 | [DF]4 [DB]2 [Fd]4 [FB]2 | [Ec]2 [DB]2 [CE=A]2 [DB]4 _A2 | %12
w: |||
 [B,EG]4 [A,DF]2 [G,E]4 [B,DF]2 | [B,EG]4 [B,DF]2 [B,EG] [EB]3 z2 | [Ge]2 B2 c2 B2 E2 [CEA]2 | %15
w: |||
 [B,EG]4 [A,DF]2 [G,E]6 |] %16
w: |
V:2
 E,4 B,,2 C,4 B,,2 | E,4 B,,2 [E,B,E] [E,G,E]3 z2 | [E,G,E]4 [E,A,E]2 [E,G,E]4 [E,B,E]2 | %3
 z2 F2 F,2 B,,6 | E,4 B,,2 C,4 B,,2 | E,4 B,,2 [E,B,E] [E,G,E]3 z2 | %6
 [E,G,E]4 [E,A,E]2 [E,E]2 C,2 A,,2 | B,,4 B,,2 E,6 | B,,4 B,,2 B,,4 B,,2 | z2 B,2 B,,2 E, E,3 z2 | %10
 [B,,B,]4 [B,,B,]2 [B,,B,]4 [D,B,]2 | =A,2 B,2 F,2 z4 F2 | E,4 B,,2 C,4 B,,2 | %13
 E,4 B,,2 E, [E,G,]3 z2 | B,2 [G,E]2 [E,A,E]2 [E,E]2 C,2 A,,2 | B,,4 B,,2 E,6 |] %16
V:3
 x12 | x12 | x12 | .C,6 z6 | x12 | x12 | z6 .G,6 | x12 | x12 | .B,,6 z6 | x12 | .F,6 B,,6 | x12 | %13
 x12 | .E,6 .G,6 | x12 |] %16
V:4
 x12 | x12 | x12 | x12 | x12 | x12 | x12 | x12 | x12 | x12 | x12 | z6 B,6 | x12 | x12 | x12 | %15
 x12 |] %16

